!!!OTL: Sanyuelilai haofengguang
!!!ARE: Asia, China,ÿAnhui Lujiang
!! III, 545
!!!SCT: C2052
!!!YEM: Copyright 1995, estate of Helmut Schaffrath.
**kern
*ICvox
*Ivox
!! Mixed meters:  2/4; 3/4
*M3/4
*k[f#c#g#]
*A:
{8b
8cc#
8b
8f#
=1
8a
8f#
4a}
=2
{8b
8cc#
8ee
8ff#
=3
8ee
8cc#
4cc#}
=4
{4b
8ee
8cc#
=5
8b
8a
8f#
8e
=6
8a
8f#
8a
8r}
=7
{8b
8cc#
8a
8a
=8
4b
8cc#
8ee
=9
8ee
8cc#
8b
8f#
=10
2a}
=11
{8.a
16b
8cc#
8ee
=12
8b
8ee
8cc#
8b
=13
4a
8b
16a
16r}
=14
{8b
8cc#
8b
8a
=15
4b
8cc#
8ee
=16
4.b
8cc#
=17
8b
8a
8f#
8e}
=18
{8cc#
8ee
8cc#
8b
=19
8a
8b
8cc#
8ee
=20
8.b
16cc#
8b
8a
=21
8.f#
16a
8e
8f#
=22
4a
4a}
=23
{4.ee
8cc#
=24
8b
8a
[4f#
=25
4f#]}
{8f#
8a
=26
8b
8ee
8cc#
8b
=27
8cc#
8f#
4a}
=28
{8.b
16cc#
4a
=29
8b
8ee
[4cc#
=30
8cc#]}
{8b
4cc#
=31
4e
8e
8f#
=32
4.a
8b
=33
8f#
8e
4.cc#
8r}
=34
*M2/4
{8b
8cc#
8b
8a
=35
4.f#
8a
=36
2b}
=37
{4a
4b
=38
8f#
8a
8e
8f#
=39
8a
8f#
4a}
=40
{8b
8cc#
4a
=41
4b
8cc#
8ee
=42
8b
8ee
8cc#
8b
=43
2a}
=44
{8a
8b
8cc#
8ee
=45
8b
8ee
8cc#
8b
=46
4a
8b
16a
16r}
==
!!!AGN: Xiaodiao, Denggezi
!!!AMT: irregular
!!!AIN: vox
!!!EED: Helmut Schaffrath
!!!EEV: 1.0
*-
!!!ONB: Tied note syntax fixed by Craig Sapp, 2004/05/03/
